static/icons/css3.svg

<svg xmlns="http://www.w3.org/2000/svg" width="24" height="24" viewBox="0 0 24 24">
  <path d="M5,5 L6.25089606,19.1357143 L11.8817204,21 L17.5125448,19.1357143 L18.7634409,5 L5,5 Z M16.2222222,7.85714286 L16.0501792,9.54642857 L11.9175627,11.3071429 L11.90681,11.3107143 L15.9032258,11.3107143 L15.4444444,16.5464286 L11.9247312,17.5714286 L8.38351254,16.5285714 L8.15412186,13.8892857 L9.90681004,13.8892857 L10.0215054,15.2571429 L11.90681,15.7321429 L13.8673835,15.1821429 L14,12.9821429 L8.03942652,12.9642857 L8.03942652,12.9607143 L8.03225806,12.9642857 L7.90322581,11.3107143 L11.921147,9.64285714 L12.1541219,9.54642857 L7.74910394,9.54642857 L7.54121864,7.85714286 L16.2222222,7.85714286 Z"/>
</svg>

<svg xmlns="http://www.w3.org/2000/svg" width="24" height="24">
    <path d="M5 5l1.25 14.136L11.883 21l5.63-1.864L18.764 5H5zm11.222 2.857l-.172 1.69-4.132 1.76-.011.004h3.996l-.459 5.235-3.52 1.025-3.54-1.042-.23-2.64h1.753l.115 1.368 1.885.475 1.96-.55.133-2.2-5.96-.018v-.003l-.008.003-.129-1.653 4.018-1.668.233-.097H7.75l-.208-1.689h8.681z"/>
</svg>
